img/logos/socialtables.svg

<svg xmlns="http://www.w3.org/2000/svg" xmlns:xlink="http://www.w3.org/1999/xlink" viewBox="0 0 56 56" version="1.1">
  <path fill-rule="evenodd" fill="#cb5599" d="M28.000194549560547,10.800622940063477C18.5162296295166,10.800622940063477,10.800646781921387,18.516204833984375,10.800646781921387,27.999927520751953C10.800646781921387,37.483890533447266,18.5162296295166,45.1994743347168,28.000194549560547,45.1994743347168C30.08315086364746,45.1994743347168,32.101585388183594,44.83572006225586,34.02043914794922,44.116241455078125C35.508819580078125,44.3509521484375,37.964542388916016,44.73978805541992,39.77748107910156,45.02709197998047L46.20068359375,46.044830322265625L45.220680236816406,39.615543365478516C44.93800354003906,37.7597541809082,44.525794982910156,35.05057144165039,44.294979095458984,33.51689910888672C44.89588165283203,31.746084213256836,45.19949722290039,29.896379470825195,45.19949722290039,27.999927520751953C45.19949722290039,18.516204833984375,37.483917236328125,10.800622940063477,28.000194549560547,10.800622940063477M28.000194549560547,15.554048538208008C34.87358474731445,15.554048538208008,40.445831298828125,21.126291275024414,40.445831298828125,27.999927520751953C40.445831298828125,29.7697696685791,40.076229095458984,31.45342254638672,39.410316467285156,32.978084564208984C39.40203857421875,32.989768981933594,40.52130889892578,40.33185577392578,40.52130889892578,40.33185577392578C40.52130889892578,40.33185577392578,33.435359954833984,39.20942306518555,33.41442108154297,39.20917892456055C31.778003692626953,40.00170135498047,29.940715789794922,40.445804595947266,28.000194549560547,40.445804595947266C21.12631607055664,40.445804595947266,15.554316520690918,34.87356185913086,15.554316520690918,27.999927520751953C15.554316520690918,21.126291275024414,21.12631607055664,15.554048538208008,28.000194549560547,15.554048538208008ZM24.589282989501953,1.2280555963516235C24.589282989501953,0.5494817495346069,25.138813018798828,-0.000048695652367314324,25.8173885345459,-0.000048695652367314324L30.182708740234375,-0.000048695652367314324C30.861284255981445,-0.000048695652367314324,31.41081428527832,0.5494817495346069,31.41081428527832,1.2280555963516235L31.41081428527832,5.593620777130127C31.41081428527832,6.2714643478393555,30.861284255981445,6.821481704711914,30.182708740234375,6.821481704711914L25.8173885345459,6.821481704711914C25.138813018798828,6.821481704711914,24.589282989501953,6.2714643478393555,24.589282989501953,5.593620777130127L24.589282989501953,1.2280555963516235ZM44.51887893676758,6.657620906829834C44.998775482177734,6.177725315093994,45.77571487426758,6.177725315093994,46.255611419677734,6.657620906829834L49.34242630004883,9.744438171386719C49.822078704833984,10.224090576171875,49.822322845458984,11.001273155212402,49.34242630004883,11.481168746948242L46.255367279052734,14.567986488342285C45.77620315551758,15.047394752502441,44.998775482177734,15.047637939453125,44.51887893676758,14.567742347717285L41.432064056396484,11.481168746948242C40.95241165161133,11.001273155212402,40.95265579223633,10.223847389221191,41.432064056396484,9.744438171386719L44.51887893676758,6.657620906829834ZM54.77194595336914,24.589282989501953C55.45051956176758,24.589282989501953,56.00004959106445,25.138813018798828,56.00004959106445,25.8173885345459L56.00004959106445,30.182708740234375C56.00004959106445,30.861284255981445,55.45051956176758,31.41081428527832,54.77194595336914,31.41081428527832L50.40637969970703,31.41081428527832C49.72853469848633,31.41081428527832,49.17852020263672,30.861284255981445,49.17852020263672,30.182708740234375L49.17852020263672,25.8173885345459C49.17852020263672,25.138813018798828,49.72853469848633,24.589282989501953,50.40637969970703,24.589282989501953L54.77194595336914,24.589282989501953ZM31.410717010498047,54.77194595336914C31.410717010498047,55.45051956176758,30.861186981201172,56.00004959106445,30.1826114654541,56.00004959106445L25.817291259765625,56.00004959106445C25.138715744018555,56.00004959106445,24.58918571472168,55.45051956176758,24.58918571472168,54.77194595336914L24.58918571472168,50.40637969970703C24.58918571472168,49.72853469848633,25.138715744018555,49.17852020263672,25.817291259765625,49.17852020263672L30.1826114654541,49.17852020263672C30.861186981201172,49.17852020263672,31.410717010498047,49.72853469848633,31.410717010498047,50.40637969970703L31.410717010498047,54.77194595336914ZM11.481120109558105,49.34238052368164C11.001224517822266,49.82227325439453,10.224285125732422,49.82227325439453,9.744389533996582,49.34238052368164L6.657572269439697,46.25556182861328C6.177919864654541,45.775909423828125,6.177676677703857,44.99872589111328,6.657572269439697,44.51883316040039L9.744632720947266,41.43201446533203C10.223798751831055,40.952606201171875,11.001224517822266,40.952362060546875,11.481120109558105,41.43225860595703L14.567937850952148,44.51883316040039C15.047589302062988,44.99872589111328,15.047346115112305,45.776153564453125,14.567937850952148,46.25556182861328L11.481120109558105,49.34238052368164ZM1.2280555963516235,31.410717010498047C0.5494817495346069,31.410717010498047,-0.000048695652367314324,30.861186981201172,-0.000048695652367314324,30.1826114654541L-0.000048695652367314324,25.817291259765625C-0.000048695652367314324,25.138715744018555,0.5494817495346069,24.58918571472168,1.2280555963516235,24.58918571472168L5.593620777130127,24.58918571472168C6.2714643478393555,24.58918571472168,6.821481704711914,25.138715744018555,6.821481704711914,25.817291259765625L6.821481704711914,30.1826114654541C6.821481704711914,30.861186981201172,6.2714643478393555,31.410717010498047,5.593620777130127,31.410717010498047L1.2280555963516235,31.410717010498047ZM6.657620906829834,11.481120109558105C6.177725315093994,11.001224517822266,6.177725315093994,10.224285125732422,6.657620906829834,9.744389533996582L9.744438171386719,6.657572269439697C10.224090576171875,6.177919864654541,11.001273155212402,6.177676677703857,11.481168746948242,6.657572269439697L14.567986488342285,9.744632720947266C15.047394752502441,10.223798751831055,15.047637939453125,11.001224517822266,14.567742347717285,11.481120109558105L11.481168746948242,14.567937850952148C11.001273155212402,15.047589302062988,10.223847389221191,15.047346115112305,9.744438171386719,14.567937850952148L6.657620906829834,11.481120109558105Z">
  </path>
</svg>

<svg xmlns="http://www.w3.org/2000/svg" viewBox="0 0 56 56"><path fill-rule="evenodd" fill="#cb5599" d="M28 10.8c-9.484 0-17.2 7.716-17.2 17.2 0 9.484 7.716 17.2 17.2 17.2 2.083 0 4.102-.364 6.02-1.084l5.757.911 6.424 1.018-.98-6.43c-.283-1.855-.695-4.564-.926-6.098.6-1.77.904-3.62.904-5.517 0-9.484-7.715-17.2-17.199-17.2m0 4.754c6.874 0 12.446 5.572 12.446 12.446 0 1.77-.37 3.453-1.036 4.978-.008.012 1.111 7.354 1.111 7.354s-7.086-1.123-7.107-1.123A12.389 12.389 0 0 1 28 40.446c-6.874 0-12.446-5.572-12.446-12.446S21.126 15.554 28 15.554zM24.59 1.228C24.59.55 25.138 0 25.816 0h4.366c.678 0 1.228.55 1.228 1.228v4.366c0 .677-.55 1.227-1.228 1.227h-4.366c-.678 0-1.228-.55-1.228-1.227V1.228zm19.929 5.43c.48-.48 1.257-.48 1.737 0l3.086 3.086c.48.48.48 1.257 0 1.737l-3.087 3.087c-.479.48-1.256.48-1.736 0l-3.087-3.087a1.228 1.228 0 0 1 0-1.737l3.087-3.086zm10.253 17.931c.679 0 1.228.55 1.228 1.228v4.366c0 .678-.55 1.228-1.228 1.228h-4.366c-.677 0-1.227-.55-1.227-1.228v-4.366c0-.678.55-1.228 1.227-1.228h4.366zM31.41 54.772c0 .679-.55 1.228-1.228 1.228h-4.366c-.678 0-1.228-.55-1.228-1.228v-4.366c0-.677.55-1.227 1.228-1.227h4.366c.678 0 1.228.55 1.228 1.227v4.366zm-19.93-5.43c-.48.48-1.257.48-1.737 0l-3.086-3.086a1.228 1.228 0 0 1 0-1.737l3.087-3.087a1.226 1.226 0 0 1 1.736 0l3.087 3.087c.48.48.48 1.257 0 1.737l-3.087 3.086zM1.228 31.411A1.23 1.23 0 0 1 0 30.183v-4.366c0-.678.55-1.228 1.228-1.228h4.366c.677 0 1.227.55 1.227 1.228v4.366c0 .678-.55 1.228-1.227 1.228H1.228zm5.43-19.93a1.227 1.227 0 0 1 0-1.737l3.086-3.086c.48-.48 1.257-.48 1.737 0l3.087 3.087c.48.479.48 1.256 0 1.736l-3.087 3.087c-.48.48-1.257.48-1.737 0L6.658 11.48z"/></svg>
